local/share/icons/dracula-icons-main/scalable/mimetypes/text-rust.svg

<?xml version="1.0" encoding="UTF-8"?>
<svg xmlns="http://www.w3.org/2000/svg" xmlns:xlink="http://www.w3.org/1999/xlink" width="64" height="64" viewBox="0 0 64 64">
<defs>
<filter id="filter-remove-color" x="0%" y="0%" width="100%" height="100%">
<feColorMatrix color-interpolation-filters="sRGB" values="0 0 0 0 1 0 0 0 0 1 0 0 0 0 1 0 0 0 1 0" />
</filter>
<mask id="mask-0">
<g filter="url(#filter-remove-color)">
<rect x="-6.4" y="-6.4" width="76.8" height="76.8" fill="rgb(0%, 0%, 0%)" fill-opacity="0.1"/>
</g>
</mask>
<linearGradient id="linear-pattern-0" gradientUnits="userSpaceOnUse" x1="49.570999" y1="52.714001" x2="51.714001" y2="54.856998" gradientTransform="matrix(0.617345, 0, 0, 0.617345, -18.167916, -19.050025)">
<stop offset="0" stop-color="rgb(0%, 0%, 0%)" stop-opacity="1"/>
<stop offset="1" stop-color="rgb(0%, 0%, 0%)" stop-opacity="0"/>
</linearGradient>
<clipPath id="clip-0">
<rect x="0" y="0" width="17" height="17"/>
</clipPath>
<g id="source-4749" clip-path="url(#clip-0)">
<path fill-rule="evenodd" fill="url(#linear-pattern-0)" d="M 14.816406 12.171875 L 11.113281 15.875 L 13.492188 15.875 C 14.226562 15.875 14.816406 15.285156 14.816406 14.550781 Z M 14.816406 12.171875 "/>
</g>
</defs>
<path fill-rule="nonzero" fill="rgb(95.686275%, 95.686275%, 95.686275%)" fill-opacity="1" d="M 3.441406 1.058594 L 13.492188 1.058594 C 14.222656 1.058594 14.816406 1.652344 14.816406 2.382812 L 14.816406 14.550781 C 14.816406 15.28125 14.222656 15.875 13.492188 15.875 L 3.441406 15.875 C 2.707031 15.875 2.117188 15.28125 2.117188 14.550781 L 2.117188 2.382812 C 2.117188 1.652344 2.707031 1.058594 3.441406 1.058594 Z M 3.441406 1.058594 "/>
<g mask="url(#mask-0)">
<use xlink:href="#source-4749"/>
</g>
<path fill-rule="nonzero" fill="rgb(40%, 40%, 40%)" fill-opacity="1" d="M 8.46875 4.496094 C 8.429688 4.496094 8.390625 4.515625 8.371094 4.546875 L 8.164062 4.882812 L 8.066406 4.890625 L 7.796875 4.605469 C 7.742188 4.546875 7.632812 4.566406 7.605469 4.644531 L 7.46875 5.007812 L 7.375 5.039062 L 7.058594 4.808594 C 6.992188 4.761719 6.890625 4.804688 6.878906 4.882812 L 6.8125 5.269531 L 6.726562 5.316406 L 6.371094 5.15625 C 6.296875 5.121094 6.207031 5.183594 6.207031 5.261719 L 6.222656 5.65625 L 6.148438 5.71875 L 5.765625 5.628906 C 5.6875 5.609375 5.609375 5.6875 5.628906 5.765625 L 5.71875 6.148438 L 5.65625 6.222656 L 5.261719 6.207031 C 5.183594 6.207031 5.121094 6.296875 5.15625 6.371094 L 5.316406 6.726562 L 5.269531 6.8125 L 4.882812 6.878906 C 4.804688 6.890625 4.761719 6.992188 4.808594 7.058594 L 5.039062 7.375 L 5.007812 7.46875 L 4.644531 7.605469 C 4.570312 7.632812 4.546875 7.742188 4.605469 7.796875 L 4.890625 8.066406 L 4.882812 8.164062 L 4.546875 8.367188 C 4.480469 8.410156 4.480469 8.523438 4.546875 8.5625 L 4.882812 8.769531 L 4.890625 8.867188 L 4.605469 9.136719 C 4.546875 9.191406 4.570312 9.296875 4.644531 9.328125 L 5.007812 9.464844 L 5.039062 9.558594 L 4.808594 9.875 C 4.761719 9.941406 4.804688 10.042969 4.882812 10.054688 L 5.269531 10.117188 L 5.316406 10.207031 L 5.15625 10.5625 C 5.121094 10.632812 5.183594 10.726562 5.261719 10.722656 L 5.65625 10.710938 L 5.71875 10.785156 L 5.628906 11.167969 C 5.609375 11.246094 5.6875 11.324219 5.765625 11.304688 L 6.148438 11.214844 L 6.222656 11.277344 L 6.207031 11.671875 C 6.207031 11.75 6.296875 11.8125 6.371094 11.777344 L 6.726562 11.617188 L 6.8125 11.664062 L 6.878906 12.046875 C 6.890625 12.128906 6.992188 12.167969 7.058594 12.125 L 7.375 11.894531 L 7.46875 11.921875 L 7.605469 12.289062 C 7.632812 12.363281 7.742188 12.386719 7.796875 12.328125 L 8.066406 12.042969 L 8.164062 12.050781 L 8.367188 12.382812 C 8.410156 12.453125 8.523438 12.453125 8.5625 12.382812 L 8.769531 12.050781 L 8.867188 12.042969 L 9.136719 12.328125 C 9.191406 12.386719 9.300781 12.363281 9.328125 12.289062 L 9.464844 11.921875 L 9.558594 11.894531 L 9.875 12.125 C 9.941406 12.167969 10.042969 12.128906 10.054688 12.046875 L 10.121094 11.664062 L 10.207031 11.617188 L 10.5625 11.777344 C 10.632812 11.8125 10.726562 11.75 10.722656 11.671875 L 10.710938 11.277344 L 10.785156 11.214844 L 11.167969 11.304688 C 11.246094 11.324219 11.324219 11.246094 11.304688 11.167969 L 11.214844 10.785156 L 11.277344 10.710938 L 11.671875 10.722656 C 11.75 10.726562 11.8125 10.632812 11.777344 10.5625 L 11.617188 10.207031 L 11.664062 10.117188 L 12.050781 10.054688 C 12.128906 10.042969 12.171875 9.941406 12.125 9.875 L 11.894531 9.558594 L 11.921875 9.464844 L 12.289062 9.328125 C 12.363281 9.296875 12.386719 9.191406 12.328125 9.136719 L 12.042969 8.867188 L 12.050781 8.769531 L 12.382812 8.5625 C 12.453125 8.523438 12.453125 8.410156 12.382812 8.367188 L 12.050781 8.164062 L 12.042969 8.066406 L 12.328125 7.796875 C 12.386719 7.742188 12.363281 7.632812 12.289062 7.605469 L 11.921875 7.46875 L 11.894531 7.375 L 12.125 7.058594 C 12.171875 6.992188 12.128906 6.890625 12.050781 6.878906 L 11.664062 6.8125 L 11.617188 6.726562 L 11.777344 6.371094 C 11.8125 6.296875 11.75 6.207031 11.671875 6.207031 L 11.277344 6.222656 L 11.214844 6.148438 L 11.304688 5.765625 C 11.324219 5.6875 11.246094 5.609375 11.167969 5.628906 L 10.785156 5.71875 L 10.710938 5.65625 L 10.722656 5.261719 C 10.726562 5.183594 10.632812 5.121094 10.5625 5.15625 L 10.207031 5.316406 L 10.121094 5.269531 L 10.054688 4.882812 C 10.042969 4.804688 9.941406 4.761719 9.875 4.808594 L 9.558594 5.039062 L 9.464844 5.007812 L 9.328125 4.644531 C 9.300781 4.566406 9.191406 4.546875 9.136719 4.605469 L 8.867188 4.890625 L 8.769531 4.882812 L 8.5625 4.546875 C 8.542969 4.515625 8.503906 4.496094 8.464844 4.496094 Z M 8.453125 5.195312 C 8.570312 5.195312 8.691406 5.277344 8.691406 5.433594 C 8.691406 5.746094 8.21875 5.746094 8.21875 5.433594 C 8.21875 5.277344 8.335938 5.195312 8.453125 5.195312 Z M 9 5.585938 C 9.839844 5.742188 10.566406 6.261719 10.988281 7 L 10.710938 7.628906 C 10.664062 7.738281 10.710938 7.867188 10.820312 7.914062 L 11.355469 8.152344 C 11.375 8.320312 11.375 8.488281 11.363281 8.65625 L 11.066406 8.65625 C 11.035156 8.65625 11.023438 8.675781 11.023438 8.707031 L 11.023438 8.84375 C 11.023438 9.164062 10.839844 9.234375 10.683594 9.253906 C 10.53125 9.269531 10.363281 9.1875 10.34375 9.097656 C 10.253906 8.59375 10.105469 8.484375 9.867188 8.300781 C 10.160156 8.113281 10.464844 7.839844 10.464844 7.476562 C 10.464844 7.078125 10.191406 6.832031 10.007812 6.707031 C 9.75 6.539062 9.460938 6.523438 9.386719 6.523438 L 6.300781 6.523438 C 6.730469 6.046875 7.300781 5.703125 7.925781 5.585938 L 8.289062 5.96875 C 8.375 6.054688 8.507812 6.058594 8.59375 5.972656 Z M 5.640625 7.332031 C 5.757812 7.332031 5.875 7.410156 5.875 7.570312 C 5.875 7.882812 5.402344 7.882812 5.402344 7.570312 C 5.402344 7.410156 5.523438 7.332031 5.640625 7.332031 Z M 11.269531 7.34375 C 11.386719 7.34375 11.503906 7.421875 11.503906 7.578125 C 11.503906 7.894531 11.03125 7.894531 11.03125 7.578125 C 11.03125 7.421875 11.152344 7.34375 11.269531 7.34375 Z M 6.136719 7.4375 L 6.480469 7.4375 L 6.480469 9.277344 L 5.671875 9.277344 C 5.570312 8.914062 5.539062 8.5 5.578125 8.128906 L 6.085938 7.902344 C 6.195312 7.855469 6.246094 7.726562 6.195312 7.617188 Z M 7.703125 7.4375 L 8.777344 7.4375 C 8.828125 7.4375 9.132812 7.457031 9.132812 7.6875 C 9.132812 7.878906 8.898438 7.972656 8.703125 7.972656 L 7.703125 7.972656 Z M 7.703125 8.660156 L 8.558594 8.660156 C 8.628906 8.660156 8.925781 8.753906 9.019531 9.136719 C 9.050781 9.253906 9.117188 9.632812 9.160156 9.753906 C 9.207031 9.890625 9.386719 10.183594 9.582031 10.183594 L 10.808594 10.183594 C 10.726562 10.292969 10.636719 10.378906 10.539062 10.476562 L 10.039062 10.371094 C 9.921875 10.34375 9.808594 10.417969 9.785156 10.535156 L 9.664062 11.085938 C 8.894531 11.4375 8.011719 11.433594 7.242188 11.074219 L 7.125 10.523438 C 7.101562 10.40625 6.984375 10.332031 6.871094 10.359375 L 6.382812 10.460938 C 6.289062 10.371094 6.207031 10.289062 6.128906 10.183594 L 8.464844 10.183594 L 8.464844 9.269531 L 7.703125 9.269531 Z M 6.707031 10.65625 C 6.824219 10.65625 6.941406 10.734375 6.941406 10.894531 C 6.941406 11.207031 6.46875 11.207031 6.46875 10.894531 C 6.46875 10.734375 6.589844 10.65625 6.707031 10.65625 Z M 10.203125 10.667969 C 10.320312 10.667969 10.4375 10.746094 10.4375 10.90625 C 10.4375 11.21875 9.964844 11.21875 9.964844 10.90625 C 9.964844 10.746094 10.082031 10.667969 10.203125 10.667969 Z M 10.203125 10.667969 "/>
</svg>

<svg width="64" height="64" version="1.1" viewBox="0 0 16.933 16.933" xmlns="http://www.w3.org/2000/svg">
 <defs>
  <linearGradient id="a" x1="49.571" x2="51.714" y1="52.714" y2="54.857" gradientTransform="matrix(2.3333,0,0,2.3333,-68.667,-72.001)" gradientUnits="userSpaceOnUse">
   <stop offset="0"/>
   <stop stop-opacity="0" offset="1"/>
  </linearGradient>
 </defs>
 <g transform="scale(.26458)">
  <rect x="8" y="4" width="48" height="56" ry="5" fill="#f4f4f4" style="paint-order:stroke fill markers"/>
  <path d="m56 46-14 14h9c2.77 0 5-2.23 5-5z" fill="url(#a)" fill-rule="evenodd" opacity=".1" stroke-width="8.8191" style="paint-order:stroke fill markers"/>
 </g>
 <path d="m8.4668 4.4978c-0.03837 0-0.07678 0.01695-0.09758 0.05072l-0.20644 0.33356-0.09724 0.0095-0.26742-0.2868c-0.0542-0.05799-0.16367-0.03653-0.19146 0.03816l-0.13702 0.36646-0.09448 0.0286-0.31754-0.22849c-0.06452-0.0466-0.16768-0.0037-0.18043 0.07466l-0.06305 0.38644-0.08673 0.04652-0.3563-0.16244c-0.07241-0.0331-0.16538 0.02912-0.16234 0.10852l0.01369 0.39213-0.07527 0.06192-0.38188-0.09008c-0.07757-0.01807-0.15645 0.06065-0.13823 0.13822l0.09 0.38197-0.06184 0.0751-0.39213-0.0137c-0.0791-0.0023-0.14137 0.08986-0.10843 0.16243l0.16243 0.35638-0.04651 0.08673-0.38636 0.06287c-0.07849 0.01274-0.12106 0.1159-0.07475 0.18043l0.22858 0.31736-0.02868 0.09465-0.36646 0.13694c-0.07439 0.02778-0.09621 0.13718-0.03807 0.19154l0.28671 0.26733-0.0095 0.09715-0.33356 0.20653c-0.06756 0.04175-0.06756 0.15356 0 0.19516l0.33356 0.20644 0.0095 0.09714-0.28671 0.26742c-0.05814 0.0542-0.03632 0.16352 0.03807 0.19145l0.36646 0.13703 0.02868 0.09457-0.22858 0.31745c-0.04645 0.06467-0.0036 0.16783 0.07484 0.18043l0.38627 0.06278 0.04651 0.08689-0.16243 0.35631c-0.03309 0.07241 0.02934 0.16553 0.10843 0.16234l0.39204-0.01378 0.06192 0.07536-0.09 0.38196c-0.01822 0.07743 0.06066 0.15611 0.13823 0.1379l0.38188-0.08992 0.07527 0.06174-0.01369 0.39222c-3e-3 0.0794 0.08993 0.14153 0.16234 0.10843l0.3563-0.16244 0.08673 0.0466 0.06304 0.38618c0.01275 0.07864 0.11591 0.12114 0.18043 0.07484l0.31737-0.22874 0.09456 0.02876 0.13702 0.36638c0.02778 0.07438 0.13726 0.09627 0.19145 0.03798l0.26742-0.28662 0.09723 0.0097 0.20644 0.33356c0.0416 0.06724 0.15341 0.0674 0.19516 0l0.20653-0.33356 0.09715-0.0097 0.26733 0.28662c0.0542 0.0583 0.16367 0.0364 0.19146-0.03798l0.13694-0.36638 0.09465-0.02876 0.31746 0.22874c0.06452 0.0463 0.16759 0.0037 0.18034-0.07484l0.06304-0.38618 0.08673-0.0466 0.3563 0.16244c0.07241 0.0331 0.16523-0.02888 0.16234-0.10843l-0.0137-0.39222 0.07519-0.06174 0.38196 0.08992c0.07758 0.01821 0.15628-0.06047 0.13806-0.1379l-0.09-0.38196 0.06184-0.07536 0.39213 0.01378c0.07909 0.0032 0.14159-0.08993 0.10834-0.16234l-0.16234-0.35631 0.04651-0.08689 0.38636-0.06278c0.07864-0.0126 0.12128-0.11576 0.07467-0.18044l-0.22857-0.31745 0.02868-0.09457 0.36646-0.13703c0.07454-0.02793 0.09628-0.13725 0.03798-0.19145l-0.28662-0.26742 0.0095-0.09714 0.33356-0.20644c0.06756-0.0416 0.06763-0.15341 6.6e-5 -0.19516l-0.33356-0.20653-0.0095-0.09715 0.28662-0.26733c0.0583-0.05436 0.03647-0.16376-0.03807-0.19154l-0.36638-0.13694-0.02868-0.09465 0.22858-0.31736c0.04661-0.06453 0.0038-0.16752-0.07467-0.18043l-0.38644-0.06287-0.04642-0.08673 0.16234-0.35638c0.03325-0.07257-0.02849-0.16547-0.10835-0.16243l-0.39213 0.01369-0.06201-0.0751 0.09017-0.38197c0.01822-0.07757-0.06057-0.15644-0.13814-0.13822l-0.38188 0.09008-0.07527-0.06192 0.01378-0.39213c3e-3 -0.0794-0.08993-0.14147-0.16235-0.10852l-0.3563 0.16244-0.08673-0.04652-0.06304-0.38644c-0.01275-0.07833-0.11583-0.12113-0.18034-0.07466l-0.31763 0.22849-0.09448-0.0286-0.13694-0.36646c-0.02778-0.07469-0.13726-0.09615-0.19146-0.03816l-0.26733 0.2868-0.09724-0.0095-0.20644-0.33356c-0.02088-0.03377-0.05921-0.05072-0.09758-0.05072zm-0.01266 0.69916c0.11799 0 0.23604 0.07864 0.23598 0.23597-1.33e-4 0.31444-0.47176 0.31444-0.47188 0-6.6e-5 -0.15733 0.11791-0.23597 0.2359-0.23597zm0.54758 0.38868c0.83865 0.15709 1.5658 0.67494 1.9884 1.4162l-0.27827 0.62844c-0.04805 0.10878 9.25e-4 0.23602 0.10938 0.28422l0.53578 0.23796c0.01666 0.16758 0.01869 0.33632 0.0061 0.50426h-0.29799c-0.02983 0-0.04177 0.0196-0.04177 0.04883v0.13685c0 0.32215-0.18171 0.39221-0.34088 0.41004-0.15159 0.01708-0.31964-0.06347-0.34037-0.15623-0.08942-0.50296-0.23838-0.61038-0.47368-0.79596 0.29201-0.18544 0.59581-0.45899 0.59581-0.82516 0-0.3954-0.27102-0.64447-0.45577-0.7666-0.25922-0.17086-0.5462-0.18694-0.62363-0.18694h-3.0821c0.42606-0.4761 0.99721-0.81662 1.625-0.93527l0.36328 0.38119c0.08213 0.086 0.21818 0.08918 0.30411 7e-3zm-3.3619 1.7473c0.11799 0 0.23596 0.07864 0.2359 0.23598-1.32e-4 0.31443-0.47176 0.31443-0.47188 0-6.6e-5 -0.15733 0.11799-0.23598 0.23598-0.23598zm5.6286 0.01103c0.11799 0 0.23604 0.07864 0.23598 0.23598-1.32e-4 0.31443-0.47176 0.31443-0.47188 0-6.6e-5 -0.15734 0.11791-0.23598 0.2359-0.23598zm-5.1335 0.09339h0.34734l-1e-3 1.8386h-0.80853c-0.10251-0.36007-0.13445-0.77473-0.09405-1.1469l0.50822-0.22581c0.10855-0.0482 0.15758-0.17544 0.10938-0.28421zm1.5685 0h1.073c0.05063 0 0.3575 0.02038 0.3575 0.24985 0 0.19051-0.23534 0.2843-0.4289 0.2843h-1.0016v-0.53424zm0 1.221h0.85609c0.06854 0 0.36645 0.0959 0.46171 0.47671 0.02983 0.11712 0.09534 0.49812 0.14013 0.6201 0.04463 0.13678 0.22639 0.42967 0.42003 0.42967h1.2256c-0.0822 0.11002-0.17214 0.19441-0.26905 0.2917l-0.49892-0.10723c-0.11621-0.0249-0.23046 0.04901-0.25536 0.16545l-0.11842 0.55258c-0.77058 0.34905-1.6551 0.34489-2.4223-0.01155l-0.11834-0.55266c-0.0249-0.11628-0.13922-0.19033-0.25536-0.16536l-0.48781 0.10473c-0.09064-0.09335-0.17493-0.17302-0.25226-0.27767h2.3375v-0.91584h-0.7632zm-0.99706 1.999c0.11799 0 0.23604 0.07865 0.23598 0.23598-1.32e-4 0.31443-0.47175 0.31443-0.47188 0-6.6e-5 -0.15734 0.11791-0.23598 0.2359-0.23598zm3.4956 0.01094c0.11799 0 0.23596 0.07873 0.2359 0.23606-1.32e-4 0.31444-0.47176 0.31444-0.47188 0-6.6e-5 -0.15734 0.11799-0.23606 0.23598-0.23606z" enable-background="new" fill="#666" stroke-width=".03816"/>
</svg>
